carriers/postItSda.svg

<svg width="128" height="64" viewBox="0 0 128 64" fill="none" xmlns="http://www.w3.org/2000/svg">
<rect width="128" height="64" rx="6" fill="white"/>
<path fill-rule="evenodd" clip-rule="evenodd" d="M44.7591 31.7664C42.854 29.8613 40.0146 27.2044 40.0146 27.2044C39.7774 26.9708 39.7263 26.7336 40.1205 26.7336H53.1241L55.5621 18H36.157C30.6533 18 27.4234 20.4307 27.4234 24.1168C27.4234 25.4416 27.6387 27.5219 29.3431 29.2263C31.8978 31.781 36.9818 36.5073 37.719 37.2555C37.9562 37.4891 38.0073 37.7299 37.6095 37.7299H23.2482L20.9343 46H42.865C47.0365 46 49.5913 42.1861 49.5913 39.9416C49.5913 36.4818 48.5803 35.5876 44.7591 31.7664Z" fill="#2A6B9B"/>
<path fill-rule="evenodd" clip-rule="evenodd" d="M66.8467 18H56.5365L48.7227 46H67.3358C75.7592 46 80.7774 36.4307 80.7774 30.1277C80.7883 21.4161 73.7008 18 66.8467 18ZM65.2519 37.708H60.1424L63.2081 26.7226H66.7665C69.6533 26.7226 71.6643 28.4781 71.6643 30.6898C71.6643 35.9307 67.0876 37.719 65.2519 37.719V37.708Z" fill="#2A6B9B"/>
<path fill-rule="evenodd" clip-rule="evenodd" d="M98.3065 18H94.4197C84.9489 18 83.5401 24.9343 82.3759 29.0584L77.6313 46H86.5766L88.8905 37.719H95.2299L92.9416 46H101.89L106.547 29.3102C109.208 19.7774 100.887 18 98.3065 18ZM97.989 27.9635L97.0255 31.4088H90.6751L91.7372 27.646C91.8599 27.136 92.1475 26.6808 92.5553 26.3508C92.963 26.0209 93.4683 25.8347 93.9927 25.8212H95.9781C97.1131 25.8321 98.2737 26.8905 97.9781 27.9635H97.989Z" fill="#2A6B9B"/>
</svg>

<svg xmlns="http://www.w3.org/2000/svg" width="128" height="64" fill="none"><rect width="128" height="64" fill="#fff" rx="6"/><path fill="#2A6B9B" fill-rule="evenodd" d="M44.76 31.766c-1.906-1.905-4.745-4.562-4.745-4.562-.238-.233-.289-.47.105-.47h13.004L55.562 18H36.157c-5.504 0-8.734 2.43-8.734 6.117 0 1.325.216 3.405 1.92 5.11 2.555 2.554 7.639 7.28 8.376 8.028.237.234.288.475-.11.475H23.25L20.933 46h21.931c4.171 0 6.726-3.814 6.726-6.058 0-3.46-1.01-4.354-4.832-8.176ZM66.847 18h-10.31l-7.814 28h18.613c8.423 0 13.441-9.57 13.441-15.872C80.788 21.416 73.701 18 66.847 18Zm-1.595 19.708h-5.11l3.066-10.985h3.558c2.887 0 4.898 1.755 4.898 3.967 0 5.24-4.576 7.029-6.412 7.029v-.011ZM98.306 18H94.42c-9.471 0-10.88 6.934-12.044 11.058L77.63 46h8.946l2.314-8.281h6.339L92.942 46h8.948l4.657-16.69c2.661-9.533-5.66-11.31-8.24-11.31Zm-.317 9.963-.964 3.446h-6.35l1.062-3.763a2.383 2.383 0 0 1 2.256-1.825h1.985c1.135.011 2.296 1.07 2 2.142h.011Z" clip-rule="evenodd"/></svg>
